X:1
T:Title
%%score ( 1 2 ) { 3 | 4 }
L:1/8
Q:1/4=103
M:4/4
K:F
V:1 treble nm="Grand Piano, Soprano"
V:2 treble 
V:3 bass nm="Choir Pad, Queensborough, Haydn"
V:4 bass 
V:1
 [FA]3 [CG] [CF]2 [CF]2 | EFGA [CG]2 [CF]2 | [Cc]2 [CA]2 [Cc]2 [FA]2 | %3
w: By~Franz~Josef~Haydn~(1732\-1809) * * *|||
 [EG][FA][GB][Ac] [GB]2 [FA]2 | fedc B-[EB] [FA]2 | dc[GB][FA] [FA]2 [EG]2 | cA[FG]F dBAG | %7
w: ||||
 GFFE [CF]4- | [CF]4 z4 |] %9
w: ||
V:2
 x8 | C2 C2 z4 | x8 | x8 | F2 F2 .F2 z2 | F2 z2 z4 | F2 z2 F2 D2 | C2 C2 z4 | x8 |] %9
V:3
 C3 B, A,2 A,2 | G,A,B,C B,2 A,2 | A,2 F,2 A,2[K:treble] C2 | C2 C2 C4 | C2 B,C DC C2 | %5
 B,C D2 C2 C2 | C2 C2[K:bass] B,D B,2 | A,2 G,2 A,4- | A,4 z4 |] %9
V:4
 F,3 F, F,2 F,2 | C,2 C,2 C,2 F,2 | F,2 z2 F,2 F,2 | C,2 C,2 F,4 | A,2 z A, G,2 F,2 | %5
 B,,2 B,,=B,, C,2 C,2 | A,,2 A,,2 B,,2 B,,2 | C,2 C,2 F,4- | F,4 z4 |] %9

